icons/kdeneon/kdeneon-plain.svg

<?xml version="1.0" encoding="utf-8"?>
<svg width="128pt" height="128pt" viewBox="0 0 128 128" version="1.1" xmlns="http://www.w3.org/2000/svg">
  <defs>
    <filter id="alpha" filterUnits="objectBoundingBox" x="0%" y="0%" width="100%" height="100%">
      <feColorMatrix type="matrix" in="SourceGraphic" values="0 0 0 0 1 0 0 0 0 1 0 0 0 0 1 0 0 0 1 0"/>
    </filter>
    <mask id="mask0">
      <g filter="url(#alpha)">
        <rect x="0" y="0" width="128" height="128" style="fill:rgb(0%,0%,0%);fill-opacity:0.2;stroke:none;"/>
      </g>
    </mask>
    <linearGradient id="linear1" gradientUnits="userSpaceOnUse" x1="24" y1="1028.3622" x2="49" y2="1028.3622" gradientTransform="matrix(2.329293,2.329293,-2.329293,2.329293,2403.453681,-2387.259938)">
      <stop offset="0" style="stop-color:rgb(0%,0%,0%);stop-opacity:1;"/>
      <stop offset="1" style="stop-color:rgb(0%,0%,0%);stop-opacity:0;"/>
    </linearGradient>
    <clipPath id="clip1">
      <rect width="128" height="128"/>
    </clipPath>
    <g id="surface6" clip-path="url(#clip1)">
      <path style=" stroke:none;fill-rule:evenodd;fill:url(#linear1);" d="M 73.316406 54.683594 L 54.683594 73.316406 L 98.953125 117.582031 C 106.382812 112.722656 112.71875 106.371094 117.5625 98.925781 Z M 73.316406 54.683594 "/>
    </g>
    <mask id="mask1">
      <g filter="url(#alpha)">
        <rect x="0" y="0" width="128" height="128" style="fill:rgb(0%,0%,0%);fill-opacity:0.2;stroke:none;"/>
      </g>
    </mask>
    <linearGradient id="linear2" gradientUnits="userSpaceOnUse" x1="24" y1="1028.3622" x2="49" y2="1028.3622" gradientTransform="matrix(2.329293,2.329293,-6.551107,6.551107,6745.008652,-6728.814668)">
      <stop offset="0" style="stop-color:rgb(0%,0%,0%);stop-opacity:1;"/>
      <stop offset="1" style="stop-color:rgb(0%,0%,0%);stop-opacity:0;"/>
    </linearGradient>
    <clipPath id="clip2">
      <rect width="128" height="128"/>
    </clipPath>
    <g id="surface9" clip-path="url(#clip2)">
      <path style=" stroke:none;fill-rule:evenodd;fill:url(#linear2);" d="M 90.203125 37.796875 L 89.027344 38.972656 C 95.667969 45.609375 99.402344 54.609375 99.410156 64 C 99.410156 83.558594 83.558594 99.410156 64 99.410156 C 54.609375 99.402344 45.609375 95.667969 38.972656 89.027344 L 37.796875 90.203125 L 74.683594 127.09375 C 101.515625 122.519531 122.523438 101.472656 127.042969 74.628906 Z M 90.203125 37.796875 "/>
    </g>
    <mask id="mask2">
      <g filter="url(#alpha)">
        <rect x="0" y="0" width="128" height="128" style="fill:rgb(0%,0%,0%);fill-opacity:0.2;stroke:none;"/>
      </g>
    </mask>
    <linearGradient id="linear3" gradientUnits="userSpaceOnUse" x1="24" y1="1028.3622" x2="49" y2="1028.3622" gradientTransform="matrix(2.329293,2.329293,-9.899425,9.899425,10188.292042,-10172.098059)">
      <stop offset="0" style="stop-color:rgb(0%,0%,0%);stop-opacity:1;"/>
      <stop offset="1" style="stop-color:rgb(0%,0%,0%);stop-opacity:0;"/>
    </linearGradient>
    <clipPath id="clip3">
      <rect width="128" height="128"/>
    </clipPath>
    <g id="surface12" clip-path="url(#clip3)">
      <path style=" stroke:none;fill-rule:evenodd;fill:url(#linear3);" d="M 103.597656 24.390625 L 103.597656 24.402344 L 100.519531 27.480469 C 110.214844 37.160156 115.667969 50.296875 115.675781 64 C 115.675781 92.539062 92.539062 115.675781 64 115.675781 C 50.296875 115.664062 37.160156 110.210938 27.480469 100.515625 L 24.402344 103.597656 L 46.234375 125.433594 C 52.007812 127.117188 57.988281 127.984375 64 128 C 99.347656 128 128 99.347656 128 64 C 127.988281 57.992188 127.132812 52.019531 125.457031 46.25 Z M 103.597656 24.390625 "/>
    </g>
  </defs>
  <g id="surface1">
    <path style="stroke: none; fill-rule: evenodd; fill: rgb(255, 255, 255);" d="M 128 64 C 128 99.347656 99.347656 128 64 128 C 28.652344 128 0 99.347656 0 64 C 0 28.652344 28.652344 0 64 0 C 99.347656 0 128 28.652344 128 64 Z M 128 64 "/>
    <g clip-path="url(#clip1)" transform="matrix(1, 0, 0, 1, 0, 0)" mask="url(#mask0)">
      <path style="stroke: none; fill-rule: evenodd; fill: rgb(255, 255, 255);" d="M 73.316406 54.683594 L 54.683594 73.316406 L 98.953125 117.582031 C 106.382812 112.722656 112.71875 106.371094 117.5625 98.925781 Z M 73.316406 54.683594 "/>
    </g>
    <g clip-path="url(#clip2)" transform="matrix(1, 0, 0, 1, 0, 0)" mask="url(#mask1)">
      <path style="stroke: none; fill-rule: evenodd; fill: rgb(255, 255, 255);" d="M 90.203125 37.796875 L 89.027344 38.972656 C 95.667969 45.609375 99.402344 54.609375 99.410156 64 C 99.410156 83.558594 83.558594 99.410156 64 99.410156 C 54.609375 99.402344 45.609375 95.667969 38.972656 89.027344 L 37.796875 90.203125 L 74.683594 127.09375 C 101.515625 122.519531 122.523438 101.472656 127.042969 74.628906 Z M 90.203125 37.796875 "/>
    </g>
    <g clip-path="url(#clip3)" transform="matrix(1, 0, 0, 1, 0, 0)" mask="url(#mask2)">
      <path style="stroke: none; fill-rule: evenodd; fill: rgb(255, 255, 255);" d="M 103.597656 24.390625 L 103.597656 24.402344 L 100.519531 27.480469 C 110.214844 37.160156 115.667969 50.296875 115.675781 64 C 115.675781 92.539062 92.539062 115.675781 64 115.675781 C 50.296875 115.664062 37.160156 110.210938 27.480469 100.515625 L 24.402344 103.597656 L 46.234375 125.433594 C 52.007812 127.117188 57.988281 127.984375 64 128 C 99.347656 128 128 99.347656 128 64 C 127.988281 57.992188 127.132812 52.019531 125.457031 46.25 Z M 103.597656 24.390625 "/>
    </g>
    <path style="fill-rule: evenodd; fill-opacity: 1; fill: rgb(255, 255, 255); stroke: rgb(0, 0, 0);" d="M 64 8 C 61.84375 8 59.972656 9.5 59.503906 11.605469 C 48.683594 12.546875 38.421875 16.808594 30.117188 23.804688 C 29.40625 23.378906 28.59375 23.15625 27.765625 23.152344 C 25.21875 23.152344 23.152344 25.21875 23.152344 27.765625 C 23.15625 28.59375 23.378906 29.402344 23.800781 30.113281 C 16.796875 38.417969 12.527344 48.6875 11.582031 59.511719 C 9.488281 59.992188 8.003906 61.851562 8 64 C 8 66.15625 9.5 68.027344 11.605469 68.496094 C 12.546875 79.316406 16.808594 89.578125 23.804688 97.882812 C 23.378906 98.59375 23.15625 99.40625 23.152344 100.234375 C 23.152344 102.78125 25.21875 104.847656 27.765625 104.847656 C 28.589844 104.84375 29.398438 104.621094 30.105469 104.203125 C 38.414062 111.207031 48.683594 115.476562 59.511719 116.421875 C 59.992188 118.511719 61.851562 119.996094 64 120 C 66.160156 120 68.027344 118.5 68.496094 116.390625 C 79.324219 115.464844 89.601562 111.210938 97.921875 104.21875 C 98.621094 104.628906 99.421875 104.84375 100.234375 104.847656 C 102.78125 104.847656 104.847656 102.78125 104.847656 100.234375 C 104.84375 99.410156 104.621094 98.597656 104.199219 97.886719 C 111.222656 89.585938 115.507812 79.3125 116.464844 68.480469 C 118.535156 67.980469 119.996094 66.128906 120 64 C 120 61.839844 118.5 59.972656 116.390625 59.503906 C 115.460938 48.675781 111.210938 38.398438 104.214844 30.082031 C 104.628906 29.378906 104.84375 28.578125 104.847656 27.765625 C 104.847656 25.21875 102.78125 23.152344 100.234375 23.152344 C 99.410156 23.15625 98.597656 23.378906 97.886719 23.800781 C 89.585938 16.777344 79.3125 12.492188 68.480469 11.535156 C 67.984375 9.464844 66.132812 8.003906 64 8 Z M 64 9.976562 C 65.457031 9.976562 66.636719 11.15625 66.636719 12.613281 C 66.636719 14.066406 65.457031 15.246094 64 15.246094 C 62.542969 15.246094 61.363281 14.066406 61.363281 12.613281 C 61.363281 11.15625 62.542969 9.976562 64 9.976562 Z M 59.664062 14.164062 C 60.316406 15.996094 62.054688 17.222656 64 17.222656 C 65.921875 17.222656 67.640625 16.027344 68.3125 14.226562 C 78.535156 15.125 88.234375 19.144531 96.097656 25.738281 C 95.789062 26.367188 95.625 27.0625 95.625 27.765625 C 95.625 30.3125 97.6875 32.375 100.234375 32.375 C 100.941406 32.375 101.636719 32.210938 102.269531 31.898438 C 108.867188 39.757812 112.890625 49.457031 113.792969 59.675781 C 111.980469 60.34375 110.777344 62.070312 110.777344 64 C 110.777344 65.921875 111.972656 67.640625 113.769531 68.3125 C 112.875 78.535156 108.855469 88.234375 102.261719 96.097656 C 101.632812 95.789062 100.9375 95.625 100.234375 95.625 C 97.6875 95.625 95.625 97.6875 95.625 100.234375 C 95.625 100.9375 95.785156 101.632812 96.097656 102.265625 C 88.238281 108.863281 78.542969 112.886719 68.324219 113.792969 C 67.65625 111.980469 65.929688 110.777344 64 110.777344 C 62.082031 110.777344 60.363281 111.96875 59.6875 113.769531 C 49.464844 112.886719 39.757812 108.882812 31.882812 102.304688 C 32.203125 101.660156 32.375 100.953125 32.375 100.234375 C 32.375 97.6875 30.3125 95.625 27.765625 95.625 C 27.058594 95.625 26.367188 95.785156 25.734375 96.097656 C 19.125 88.25 15.085938 78.558594 14.164062 68.335938 C 15.996094 67.683594 17.222656 65.945312 17.222656 64 C 17.222656 62.078125 16.03125 60.363281 14.230469 59.6875 C 15.113281 49.464844 19.117188 39.757812 25.699219 31.882812 C 26.339844 32.203125 27.046875 32.375 27.765625 32.375 C 30.3125 32.375 32.375 30.3125 32.375 27.765625 C 32.375 27.058594 32.210938 26.363281 31.902344 25.730469 C 39.75 19.121094 49.441406 15.082031 59.664062 14.164062 Z M 64 23.8125 C 61.828125 23.8125 59.953125 25.328125 59.496094 27.453125 C 41.027344 29.722656 27.140625 45.394531 27.105469 64 C 27.132812 82.613281 41.023438 98.292969 59.5 100.5625 C 59.964844 102.679688 61.835938 104.1875 64 104.1875 C 66.171875 104.1875 68.046875 102.671875 68.503906 100.546875 C 86.972656 98.277344 100.859375 82.605469 100.894531 64 C 100.867188 45.386719 86.976562 29.707031 68.5 27.4375 C 68.035156 25.320312 66.164062 23.8125 64 23.8125 Z M 27.765625 25.128906 C 29.21875 25.128906 30.398438 26.308594 30.398438 27.765625 C 30.398438 29.21875 29.21875 30.398438 27.765625 30.398438 C 26.308594 30.398438 25.128906 29.21875 25.128906 27.765625 C 25.128906 26.308594 26.308594 25.128906 27.765625 25.128906 Z M 100.234375 25.128906 C 101.691406 25.128906 102.871094 26.308594 102.871094 27.765625 C 102.871094 29.21875 101.691406 30.398438 100.234375 30.398438 C 98.78125 30.398438 97.601562 29.21875 97.601562 27.765625 C 97.601562 26.308594 98.78125 25.128906 100.234375 25.128906 Z M 64 25.789062 C 65.457031 25.789062 66.636719 26.96875 66.636719 28.421875 C 66.636719 29.878906 65.457031 31.058594 64 31.058594 C 62.542969 31.058594 61.363281 29.878906 61.363281 28.421875 C 61.363281 26.96875 62.542969 25.789062 64 25.789062 Z M 59.691406 30.066406 C 60.375 31.851562 62.085938 33.035156 64 33.035156 C 65.90625 33.03125 67.617188 31.855469 68.300781 30.074219 C 85.398438 32.238281 98.226562 46.765625 98.257812 64 C 98.230469 81.234375 85.40625 95.765625 68.308594 97.933594 C 67.625 96.148438 65.914062 94.964844 64 94.964844 C 62.09375 94.96875 60.382812 96.144531 59.699219 97.925781 C 42.601562 95.761719 29.773438 81.234375 29.742188 64 C 29.769531 46.765625 42.59375 32.234375 59.691406 30.066406 Z M 64 50.824219 C 56.722656 50.824219 50.824219 56.722656 50.824219 64 C 50.824219 71.277344 56.722656 77.175781 64 77.175781 C 71.277344 77.175781 77.175781 71.277344 77.175781 64 C 77.175781 56.722656 71.277344 50.824219 64 50.824219 Z M 12.613281 61.363281 C 14.066406 61.363281 15.246094 62.542969 15.246094 64 C 15.246094 65.457031 14.066406 66.636719 12.613281 66.636719 C 11.15625 66.636719 9.976562 65.457031 9.976562 64 C 9.976562 62.542969 11.15625 61.363281 12.613281 61.363281 Z M 115.386719 61.363281 C 116.84375 61.363281 118.023438 62.542969 118.023438 64 C 118.023438 65.457031 116.84375 66.636719 115.386719 66.636719 C 113.933594 66.636719 112.753906 65.457031 112.753906 64 C 112.753906 62.542969 113.933594 61.363281 115.386719 61.363281 Z M 64 96.941406 C 65.457031 96.941406 66.636719 98.121094 66.636719 99.578125 C 66.636719 101.03125 65.457031 102.210938 64 102.210938 C 62.542969 102.210938 61.363281 101.03125 61.363281 99.578125 C 61.363281 98.121094 62.542969 96.941406 64 96.941406 Z M 27.765625 97.601562 C 29.21875 97.601562 30.398438 98.78125 30.398438 100.234375 C 30.398438 101.691406 29.21875 102.871094 27.765625 102.871094 C 26.308594 102.871094 25.128906 101.691406 25.128906 100.234375 C 25.128906 98.78125 26.308594 97.601562 27.765625 97.601562 Z M 100.234375 97.601562 C 101.691406 97.601562 102.871094 98.78125 102.871094 100.234375 C 102.871094 101.691406 101.691406 102.871094 100.234375 102.871094 C 98.78125 102.871094 97.601562 101.691406 97.601562 100.234375 C 97.601562 98.78125 98.78125 97.601562 100.234375 97.601562 Z M 64 112.753906 C 65.457031 112.753906 66.636719 113.933594 66.636719 115.386719 C 66.636719 116.84375 65.457031 118.023438 64 118.023438 C 62.542969 118.023438 61.363281 116.84375 61.363281 115.386719 C 61.363281 113.933594 62.542969 112.753906 64 112.753906 Z M 64 112.753906 "/>
  </g>
</svg>

<svg viewBox="0 0 128 128" xmlns="http://www.w3.org/2000/svg"><defs><clipPath id="b"><path d="M0 0h128v128H0z"/></clipPath><clipPath id="d"><path d="M0 0h128v128H0z"/></clipPath><clipPath id="f"><path d="M0 0h128v128H0z"/></clipPath><mask id="c"><g filter="url(#a)"><path style="fill:#000;fill-opacity:.2;stroke:none" d="M0 0h128v128H0z"/></g></mask><mask id="e"><g filter="url(#a)"><path style="fill:#000;fill-opacity:.2;stroke:none" d="M0 0h128v128H0z"/></g></mask><mask id="g"><g filter="url(#a)"><path style="fill:#000;fill-opacity:.2;stroke:none" d="M0 0h128v128H0z"/></g></mask><filter id="a" filterUnits="objectBoundingBox" x="0%" y="0%" width="100%" height="100%"><feColorMatrix in="SourceGraphic" values="0 0 0 0 1 0 0 0 0 1 0 0 0 0 1 0 0 0 1 0"/></filter></defs><path style="stroke:none;fill-rule:evenodd;fill:#fff" d="M128 64c0 35.348-28.652 64-64 64S0 99.348 0 64 28.652 0 64 0s64 28.652 64 64Zm0 0"/><g clip-path="url(#b)" mask="url(#c)"><path style="stroke:none;fill-rule:evenodd;fill:#fff" d="M73.316 54.684 54.684 73.316l44.27 44.266a63.975 63.975 0 0 0 18.609-18.656Zm0 0"/></g><g clip-path="url(#d)" mask="url(#e)"><path style="stroke:none;fill-rule:evenodd;fill:#fff" d="m90.203 37.797-1.176 1.176A35.422 35.422 0 0 1 99.41 64c0 19.559-15.851 35.41-35.41 35.41a35.422 35.422 0 0 1-25.027-10.383l-1.176 1.176 36.887 36.89c26.832-4.573 47.84-25.62 52.359-52.464Zm0 0"/></g><g clip-path="url(#f)" mask="url(#g)"><path style="stroke:none;fill-rule:evenodd;fill:#fff" d="M103.598 24.39v.012l-3.078 3.078A51.647 51.647 0 0 1 115.676 64c0 28.54-23.137 51.676-51.676 51.676a51.667 51.667 0 0 1-36.52-15.16l-3.078 3.082 21.832 21.836A64.06 64.06 0 0 0 64 128c35.348 0 64-28.652 64-64a64.071 64.071 0 0 0-2.543-17.75Zm0 0"/></g><path style="fill-rule:evenodd;fill-opacity:1;fill:#fff;stroke:#000" d="M64 8a4.61 4.61 0 0 0-4.496 3.605 52.7 52.7 0 0 0-29.387 12.2 4.616 4.616 0 0 0-2.351-.653 4.615 4.615 0 0 0-4.614 4.614c.004.828.227 1.636.649 2.347a52.72 52.72 0 0 0-12.219 29.399A4.612 4.612 0 0 0 8 64a4.61 4.61 0 0 0 3.605 4.496 52.7 52.7 0 0 0 12.2 29.387 4.616 4.616 0 0 0-.653 2.351 4.615 4.615 0 0 0 4.614 4.614 4.643 4.643 0 0 0 2.34-.645 52.743 52.743 0 0 0 29.406 12.219A4.613 4.613 0 0 0 64 120c2.16 0 4.027-1.5 4.496-3.61a52.723 52.723 0 0 0 29.426-12.171c.7.41 1.5.625 2.312.629a4.615 4.615 0 0 0 4.614-4.614 4.647 4.647 0 0 0-.649-2.347 52.712 52.712 0 0 0 12.266-29.407A4.62 4.62 0 0 0 120 64c0-2.16-1.5-4.027-3.61-4.496a52.705 52.705 0 0 0-12.175-29.422 4.608 4.608 0 0 0 .633-2.316 4.615 4.615 0 0 0-4.614-4.614 4.647 4.647 0 0 0-2.347.649A52.712 52.712 0 0 0 68.48 11.535 4.613 4.613 0 0 0 64 8Zm0 1.977a2.636 2.636 0 1 1-2.637 2.636A2.636 2.636 0 0 1 64 9.977Zm-4.336 4.187a4.604 4.604 0 0 0 8.648.063 50.065 50.065 0 0 1 27.786 11.511 4.608 4.608 0 0 0 6.172 6.16 50.057 50.057 0 0 1 11.523 27.778 4.606 4.606 0 0 0-.023 8.637 50.033 50.033 0 0 1-11.508 27.785 4.608 4.608 0 0 0-6.164 6.168 50.078 50.078 0 0 1-27.774 11.527A4.61 4.61 0 0 0 64 110.777a4.608 4.608 0 0 0-4.313 2.993 50.1 50.1 0 0 1-27.804-11.465 4.608 4.608 0 0 0-6.148-6.207 50.078 50.078 0 0 1-11.57-27.762 4.604 4.604 0 0 0 .066-8.648 50.077 50.077 0 0 1 11.468-27.805 4.608 4.608 0 0 0 6.203-6.152 50.045 50.045 0 0 1 27.762-11.567ZM64 23.813a4.606 4.606 0 0 0-4.504 3.64C41.027 29.723 27.141 45.395 27.106 64c.027 18.613 13.917 34.293 32.394 36.563a4.606 4.606 0 0 0 9.004-.016c18.469-2.27 32.355-17.942 32.39-36.547-.027-18.613-13.917-34.293-32.394-36.563a4.609 4.609 0 0 0-4.5-3.625Zm-36.234 1.316a2.635 2.635 0 1 1-.004 5.27 2.635 2.635 0 0 1 .004-5.27Zm72.468 0a2.636 2.636 0 1 1 .002 5.271 2.636 2.636 0 0 1-.002-5.271ZM64 25.789a2.635 2.635 0 1 1 0 5.27 2.636 2.636 0 1 1 0-5.27Zm-4.309 4.277A4.616 4.616 0 0 0 64 33.036a4.617 4.617 0 0 0 4.3-2.962C85.399 32.238 98.228 46.766 98.259 64c-.028 17.234-12.852 31.766-29.95 33.934A4.616 4.616 0 0 0 64 94.964a4.617 4.617 0 0 0-4.3 2.962C42.601 95.762 29.772 81.234 29.741 64c.028-17.234 12.852-31.766 29.95-33.934ZM64 50.824c-7.277 0-13.176 5.899-13.176 13.176S56.723 77.176 64 77.176 77.176 71.277 77.176 64 71.277 50.824 64 50.824Zm-51.387 10.54A2.635 2.635 0 0 1 15.246 64a2.635 2.635 0 1 1-5.27 0 2.636 2.636 0 0 1 2.637-2.637Zm102.774 0A2.636 2.636 0 0 1 118.023 64a2.636 2.636 0 1 1-2.636-2.637ZM64 96.94a2.636 2.636 0 1 1-2.637 2.637A2.636 2.636 0 0 1 64 96.941Zm-36.234.66a2.634 2.634 0 1 1-.003 5.269 2.634 2.634 0 0 1 .003-5.268Zm72.468 0a2.635 2.635 0 1 1 .004 5.27 2.635 2.635 0 0 1-.004-5.27ZM64 112.755a2.635 2.635 0 1 1 0 5.27 2.636 2.636 0 1 1 0-5.27Zm0 0"/></svg>
